icons/desktop/16/svg/wrapped-scrolling-16.svg

<svg width="16" height="16" viewBox="0 0 16 16" fill="none" xmlns="http://www.w3.org/2000/svg">
<path d="M3.03857 13.041C3.59846 12.991 4.19864 12.9741 4.96143 13.041C6.00843 13.133 6.83917 13.97 6.97217 14.999H5.44189C5.33989 14.747 5.10757 14.5601 4.83057 14.5361C4.16871 14.4792 3.65338 14.4941 3.16846 14.5361C2.88569 14.5613 2.65614 14.7462 2.55518 15L1.02588 14.999C1.15587 13.9561 1.97272 13.1351 3.03857 13.041Z" fill="black"/>
<path d="M10.6392 13.041C11.1991 12.991 11.8001 12.974 12.563 13.041C13.609 13.133 14.4388 13.97 14.5718 14.999H13.0415C12.9395 14.7471 12.709 14.5602 12.4321 14.5361C11.7712 14.4791 11.254 14.4941 10.769 14.5361C10.486 14.5611 10.2558 14.746 10.1548 15L8.62646 14.999C8.75648 13.956 9.57317 13.135 10.6392 13.041Z" fill="black"/>
<path fill-rule="evenodd" clip-rule="evenodd" d="M4.00049 4.00098C4.28974 4.00099 4.61249 4.0131 4.9624 4.04297C6.12835 4.14507 7.00049 5.13733 7.00049 6.28418V9.71387C7.00049 10.8651 6.1323 11.8545 4.96143 11.957L4.9624 11.958C4.65944 11.985 4.33749 12 4.00049 12C3.71124 12 3.38849 11.9879 3.03857 11.958C1.87239 11.8561 0.999512 10.8638 0.999512 9.7168V6.28711C0.999512 5.13599 1.86795 4.14666 3.03857 4.04395C3.34154 4.01701 3.66349 4.00098 4.00049 4.00098ZM4.00049 5.50098C3.708 5.50098 3.431 5.51413 3.17236 5.53711H3.17041C2.79812 5.56942 2.50049 5.88893 2.50049 6.28711V9.7168C2.50049 10.1097 2.79979 10.4316 3.16748 10.4639C3.47309 10.4899 3.75206 10.5 4.00049 10.5C4.29298 10.5 4.56998 10.4869 4.82861 10.4639H4.83057C5.20263 10.4313 5.50049 10.1119 5.50049 9.71387V6.28418C5.50049 5.89146 5.20096 5.56961 4.8335 5.53711C4.5283 5.51109 4.24864 5.50099 4.00049 5.50098Z" fill="black"/>
<path fill-rule="evenodd" clip-rule="evenodd" d="M11.6001 4.00098C11.8895 4.00098 12.2119 4.01308 12.562 4.04297C13.7282 4.14484 14.6001 5.13717 14.6001 6.28418V9.71387C14.6001 10.8653 13.7322 11.8548 12.561 11.957L12.562 11.958C12.2589 11.985 11.9373 12 11.6001 12C11.3107 12 10.9883 11.9879 10.6382 11.958C9.47199 11.8561 8.6001 10.8638 8.6001 9.7168V6.28711C8.6001 5.13599 9.46756 4.14666 10.6382 4.04395C10.9413 4.01698 11.2629 4.00098 11.6001 4.00098ZM11.6001 5.50098C11.3074 5.50098 11.0307 5.5141 10.772 5.53711H10.77C10.3977 5.56942 10.1001 5.88893 10.1001 6.28711V9.7168C10.1001 10.1097 10.3994 10.4316 10.7671 10.4639C11.0729 10.49 11.3515 10.5 11.6001 10.5C11.8928 10.5 12.1694 10.4869 12.4282 10.4639H12.4302C12.8025 10.4316 13.1001 10.112 13.1001 9.71387V6.28418C13.1001 5.89129 12.8008 5.56937 12.4331 5.53711C12.1277 5.51108 11.8484 5.50098 11.6001 5.50098Z" fill="black"/>
<path d="M5.44482 1.00098H6.97412C6.84414 2.04386 6.02726 2.86484 4.96143 2.95898C4.65954 2.98497 4.33832 3.00096 4.00146 3.00098C3.71346 3.00098 3.3896 2.98998 3.0376 2.95898C1.99082 2.86677 1.16081 2.02982 1.02783 1.00098H2.55811C2.66011 1.25298 2.89243 1.43987 3.16943 1.46387C3.83227 1.52283 4.34763 1.50586 4.83154 1.46387C5.11429 1.43871 5.34386 1.25479 5.44482 1.00098Z" fill="black"/>
<path d="M12.9448 1.00098H14.4741C14.3441 2.04386 13.5273 2.86484 12.4614 2.95898C12.1595 2.98497 11.8383 3.00096 11.5015 3.00098C11.2135 3.00098 10.8896 2.98998 10.5376 2.95898C9.49082 2.86677 8.66081 2.02982 8.52783 1.00098H10.0581C10.1601 1.25298 10.3924 1.43987 10.6694 1.46387C11.3323 1.52283 11.8476 1.50586 12.3315 1.46387C12.6143 1.43871 12.8439 1.25479 12.9448 1.00098Z" fill="black"/>
</svg>

<!-- This Source Code Form is subject to the terms of the Mozilla Public
   - License, v. 2.0. If a copy of the MPL was not distributed with this
   - file, You can obtain one at http://mozilla.org/MPL/2.0/. -->
<svg xmlns="http://www.w3.org/2000/svg" width="16" height="16" fill="context-fill" fill-opacity="context-fill-opacity" viewBox="0 0 16 16">
    <path d="M3.039 13.041a10.5 10.5 0 0 1 1.922 0c1.047.092 1.878.929 2.011 1.958h-1.53a.74.74 0 0 0-.611-.463 9.3 9.3 0 0 0-1.663 0 .73.73 0 0 0-.613.464l-1.53-.001a2.22 2.22 0 0 1 2.014-1.958M10.64 13.041a10.5 10.5 0 0 1 1.923 0c1.046.092 1.876.929 2.009 1.958h-1.53a.73.73 0 0 0-.61-.463 9.3 9.3 0 0 0-1.663 0 .73.73 0 0 0-.614.464l-1.529-.001a2.22 2.22 0 0 1 2.013-1.958" />
    <path fill-rule="evenodd" d="M4 4.001q.436-.002.962.042C6.128 4.145 7 5.137 7 6.284v3.43c0 1.151-.868 2.14-2.039 2.243l.001.001a11 11 0 0 1-1.923 0c-1.167-.102-2.04-1.094-2.04-2.241v-3.43c0-1.151.869-2.14 2.04-2.243Q3.494 4.002 4 4m0 1.5q-.439 0-.828.036H3.17a.744.744 0 0 0-.67.75v3.43c0 .393.3.715.667.747a10 10 0 0 0 1.662 0h.002a.745.745 0 0 0 .67-.75v-3.43c0-.393-.3-.714-.668-.747A10 10 0 0 0 4 5.501M11.6 4.001q.436-.002.962.042c1.166.102 2.038 1.094 2.038 2.241v3.43c0 1.151-.868 2.14-2.039 2.243l.001.001a11 11 0 0 1-1.924 0C9.472 11.856 8.6 10.864 8.6 9.717v-3.43c0-1.151.868-2.14 2.038-2.243q.456-.042.962-.043m0 1.5q-.44 0-.828.036h-.002a.744.744 0 0 0-.67.75v3.43c0 .393.3.715.667.747a10 10 0 0 0 1.661 0h.002a.744.744 0 0 0 .67-.75v-3.43c0-.393-.3-.715-.667-.747a10 10 0 0 0-.833-.036" clip-rule="evenodd" />
    <path d="M5.445 1.001h1.53A2.22 2.22 0 0 1 4.96 2.959a11 11 0 0 1-1.923 0c-1.047-.092-1.877-.93-2.01-1.958h1.53a.74.74 0 0 0 .611.463 9 9 0 0 0 1.663 0A.73.73 0 0 0 5.445 1M12.945 1.001h1.53a2.22 2.22 0 0 1-2.014 1.958 11 11 0 0 1-1.923 0c-1.047-.092-1.877-.93-2.01-1.958h1.53a.74.74 0 0 0 .611.463 9 9 0 0 0 1.662 0A.73.73 0 0 0 12.946 1" />
</svg>
